static/img/kroki/e65c09e64e07cc268eea13c6128b8bfb.svg

<?xml version="1.0" encoding="us-ascii" standalone="no"?><svg xmlns="http://www.w3.org/2000/svg" xmlns:xlink="http://www.w3.org/1999/xlink" contentStyleType="text/css" height="1004px" preserveAspectRatio="none" style="width:424px;height:1004px;" version="1.1" viewBox="0 0 424 1004" width="424px" zoomAndPan="magnify"><defs/><g><!--class aws_efs_file_system--><g id="elem_aws_efs_file_system"><rect codeLine="22" fill="#3D176E" height="231.8672" id="aws_efs_file_system" rx="2.5" ry="2.5" style="stroke:#000D19;stroke-width:0.5;" width="343" x="24" y="765.33"/><ellipse cx="101.25" cy="785.2245" fill="#ADD1B2" rx="11" ry="11" style="stroke:#181818;stroke-width:1.0;"/><path d="M104.2188,790.8652 Q103.6406,791.162 103,791.3027 Q102.3594,791.4589 101.6563,791.4589 Q99.1563,791.4589 97.8281,789.8183 Q96.5156,788.162 96.5156,785.037 Q96.5156,781.912 97.8281,780.2558 Q99.1563,778.5995 101.6563,778.5995 Q102.3594,778.5995 103,778.7558 Q103.6563,778.912 104.2188,779.2089 L104.2188,781.9277 Q103.5938,781.3495 103,781.0839 Q102.4063,780.8027 101.7813,780.8027 Q100.4375,780.8027 99.75,781.8808 Q99.0625,782.9433 99.0625,785.037 Q99.0625,787.1308 99.75,788.2089 Q100.4375,789.2714 101.7813,789.2714 Q102.4063,789.2714 103,789.0058 Q103.5938,788.7245 104.2188,788.1464 L104.2188,790.8652 Z " fill="#000000"/><text fill="#D9B8FF" font-family="Helvetica" font-size="17" lengthAdjust="spacing" textLength="170" x="126.75" y="791.1098">aws_efs_file_system</text><line style="stroke:#000D19;stroke-width:0.5;" x1="25" x2="366" y1="805.1191" y2="805.1191"/><text fill="#D9B8FF" font-family="sans-serif" font-size="14" font-weight="bold" lengthAdjust="spacing" textLength="177" x="35" y="827.1142">availability_zone_name</text><text fill="#D9B8FF" font-family="sans-serif" font-size="14" lengthAdjust="spacing" textLength="48" x="212" y="827.1142">: string</text><text fill="#D9B8FF" font-family="sans-serif" font-size="14" font-weight="bold" lengthAdjust="spacing" textLength="117" x="35" y="853.4111">creation_token</text><text fill="#D9B8FF" font-family="sans-serif" font-size="14" lengthAdjust="spacing" textLength="48" x="152" y="853.4111">: string</text><text fill="#D9B8FF" font-family="sans-serif" font-size="14" font-weight="bold" lengthAdjust="spacing" textLength="205" x="35" y="879.7079">number_of_mount_targets</text><text fill="#D9B8FF" font-family="sans-serif" font-size="14" lengthAdjust="spacing" textLength="44" x="240" y="879.7079">: int64</text><text fill="#D9B8FF" font-family="sans-serif" font-size="14" font-weight="bold" lengthAdjust="spacing" textLength="72" x="35" y="906.0048">owner_id</text><text fill="#D9B8FF" font-family="sans-serif" font-size="14" lengthAdjust="spacing" textLength="48" x="107" y="906.0048">: string</text><text fill="#D9B8FF" font-family="sans-serif" font-size="14" font-weight="bold" lengthAdjust="spacing" textLength="153" x="35" y="932.3017">performance_mode</text><text fill="#D9B8FF" font-family="sans-serif" font-size="14" lengthAdjust="spacing" textLength="48" x="188" y="932.3017">: string</text><text fill="#D9B8FF" font-family="sans-serif" font-size="14" font-weight="bold" lengthAdjust="spacing" textLength="264" x="35" y="958.5986">provisioned_throughput_in_mibps</text><text fill="#D9B8FF" font-family="sans-serif" font-size="14" lengthAdjust="spacing" textLength="57" x="299" y="958.5986">: double</text><text fill="#D9B8FF" font-family="sans-serif" font-size="14" font-weight="bold" lengthAdjust="spacing" textLength="140" x="35" y="984.8954">throughput_mode</text><text fill="#D9B8FF" font-family="sans-serif" font-size="14" lengthAdjust="spacing" textLength="48" x="175" y="984.8954">: string</text></g><!--class aws_resource--><g id="elem_aws_resource"><rect codeLine="31" fill="#3D176E" height="74.0859" id="aws_resource" rx="2.5" ry="2.5" style="stroke:#000D19;stroke-width:0.5;" width="155" x="7" y="504.5"/><ellipse cx="22" cy="524.3945" fill="#ADD1B2" rx="11" ry="11" style="stroke:#181818;stroke-width:1.0;"/><path d="M24.9688,530.0352 Q24.3906,530.332 23.75,530.4727 Q23.1094,530.6289 22.4063,530.6289 Q19.9063,530.6289 18.5781,528.9883 Q17.2656,527.332 17.2656,524.207 Q17.2656,521.082 18.5781,519.4258 Q19.9063,517.7695 22.4063,517.7695 Q23.1094,517.7695 23.75,517.9258 Q24.4063,518.082 24.9688,518.3789 L24.9688,521.0977 Q24.3438,520.5195 23.75,520.2539 Q23.1563,519.9727 22.5313,519.9727 Q21.1875,519.9727 20.5,521.0508 Q19.8125,522.1133 19.8125,524.207 Q19.8125,526.3008 20.5,527.3789 Q21.1875,528.4414 22.5313,528.4414 Q23.1563,528.4414 23.75,528.1758 Q24.3438,527.8945 24.9688,527.3164 L24.9688,530.0352 Z " fill="#000000"/><text fill="#D9B8FF" font-family="Helvetica" font-size="17" lengthAdjust="spacing" textLength="113" x="41" y="530.2798">aws_resource</text><line style="stroke:#000D19;stroke-width:0.5;" x1="8" x2="161" y1="544.2891" y2="544.2891"/><text fill="#D9B8FF" font-family="sans-serif" font-size="14" font-weight="bold" lengthAdjust="spacing" textLength="26" x="18" y="566.2842">arn</text><text fill="#D9B8FF" font-family="sans-serif" font-size="14" lengthAdjust="spacing" textLength="48" x="44" y="566.2842">: string</text></g><!--class network_share--><g id="elem_network_share"><rect codeLine="34" fill="#3D176E" height="205.5703" id="network_share" rx="2.5" ry="2.5" style="stroke:#000D19;stroke-width:0.5;" width="220" x="197.5" y="438.76"/><ellipse cx="236.35" cy="458.6545" fill="#ADD1B2" rx="11" ry="11" style="stroke:#181818;stroke-width:1.0;"/><path d="M239.3188,464.2952 Q238.7406,464.592 238.1,464.7327 Q237.4594,464.8889 236.7563,464.8889 Q234.2563,464.8889 232.9281,463.2483 Q231.6156,461.592 231.6156,458.467 Q231.6156,455.342 232.9281,453.6858 Q234.2563,452.0295 236.7563,452.0295 Q237.4594,452.0295 238.1,452.1858 Q238.7563,452.342 239.3188,452.6389 L239.3188,455.3577 Q238.6938,454.7795 238.1,454.5139 Q237.5063,454.2327 236.8813,454.2327 Q235.5375,454.2327 234.85,455.3108 Q234.1625,456.3733 234.1625,458.467 Q234.1625,460.5608 234.85,461.6389 Q235.5375,462.7014 236.8813,462.7014 Q237.5063,462.7014 238.1,462.4358 Q238.6938,462.1545 239.3188,461.5764 L239.3188,464.2952 Z " fill="#000000"/><text fill="#D9B8FF" font-family="Helvetica" font-size="17" lengthAdjust="spacing" textLength="125" x="260.65" y="464.5398">network_share</text><line style="stroke:#000D19;stroke-width:0.5;" x1="198.5" x2="416.5" y1="478.5491" y2="478.5491"/><text fill="#D9B8FF" font-family="sans-serif" font-size="14" font-weight="bold" lengthAdjust="spacing" textLength="133" x="208.5" y="500.5442">share_encrypted</text><text fill="#D9B8FF" font-family="sans-serif" font-size="14" lengthAdjust="spacing" textLength="65" x="341.5" y="500.5442">: boolean</text><text fill="#D9B8FF" font-family="sans-serif" font-size="14" font-weight="bold" lengthAdjust="spacing" textLength="85" x="208.5" y="526.8411">share_iops</text><text fill="#D9B8FF" font-family="sans-serif" font-size="14" lengthAdjust="spacing" textLength="44" x="293.5" y="526.8411">: int64</text><text fill="#D9B8FF" font-family="sans-serif" font-size="14" font-weight="bold" lengthAdjust="spacing" textLength="84" x="208.5" y="553.1379">share_size</text><text fill="#D9B8FF" font-family="sans-serif" font-size="14" lengthAdjust="spacing" textLength="44" x="292.5" y="553.1379">: int64</text><text fill="#D9B8FF" font-family="sans-serif" font-size="14" font-weight="bold" lengthAdjust="spacing" textLength="101" x="208.5" y="579.4348">share_status</text><text fill="#D9B8FF" font-family="sans-serif" font-size="14" lengthAdjust="spacing" textLength="48" x="309.5" y="579.4348">: string</text><text fill="#D9B8FF" font-family="sans-serif" font-size="14" font-weight="bold" lengthAdjust="spacing" textLength="141" x="208.5" y="605.7317">share_throughput</text><text fill="#D9B8FF" font-family="sans-serif" font-size="14" lengthAdjust="spacing" textLength="57" x="349.5" y="605.7317">: double</text><text fill="#D9B8FF" font-family="sans-serif" font-size="14" font-weight="bold" lengthAdjust="spacing" textLength="87" x="208.5" y="632.0286">share_type</text><text fill="#D9B8FF" font-family="sans-serif" font-size="14" lengthAdjust="spacing" textLength="48" x="295.5" y="632.0286">: string</text></g><!--class resource--><g id="elem_resource"><rect codeLine="42" fill="#3D176E" height="310.7578" id="resource" rx="2.5" ry="2.5" style="stroke:#000D19;stroke-width:0.5;" width="227" x="82" y="7"/><ellipse cx="150.75" cy="26.8945" fill="#ADD1B2" rx="11" ry="11" style="stroke:#181818;stroke-width:1.0;"/><path d="M153.7188,32.5352 Q153.1406,32.832 152.5,32.9727 Q151.8594,33.1289 151.1563,33.1289 Q148.6563,33.1289 147.3281,31.4883 Q146.0156,29.832 146.0156,26.707 Q146.0156,23.582 147.3281,21.9258 Q148.6563,20.2695 151.1563,20.2695 Q151.8594,20.2695 152.5,20.4258 Q153.1563,20.582 153.7188,20.8789 L153.7188,23.5977 Q153.0938,23.0195 152.5,22.7539 Q151.9063,22.4727 151.2813,22.4727 Q149.9375,22.4727 149.25,23.5508 Q148.5625,24.6133 148.5625,26.707 Q148.5625,28.8008 149.25,29.8789 Q149.9375,30.9414 151.2813,30.9414 Q151.9063,30.9414 152.5,30.6758 Q153.0938,30.3945 153.7188,29.8164 L153.7188,32.5352 Z " fill="#000000"/><text fill="#D9B8FF" font-family="Helvetica" font-size="17" lengthAdjust="spacing" textLength="71" x="176.25" y="32.7798">resource</text><line style="stroke:#000D19;stroke-width:0.5;" x1="83" x2="308" y1="46.7891" y2="46.7891"/><text fill="#D9B8FF" font-family="sans-serif" font-size="14" font-weight="bold" lengthAdjust="spacing" textLength="29" x="93" y="68.7842">age</text><text fill="#D9B8FF" font-family="sans-serif" font-size="14" lengthAdjust="spacing" textLength="66" x="122" y="68.7842">: duration</text><text fill="#D9B8FF" font-family="sans-serif" font-size="14" font-weight="bold" lengthAdjust="spacing" textLength="43" x="93" y="95.0811">atime</text><text fill="#D9B8FF" font-family="sans-serif" font-size="14" lengthAdjust="spacing" textLength="70" x="136" y="95.0811">: datetime</text><text fill="#D9B8FF" font-family="sans-serif" font-size="14" font-weight="bold" lengthAdjust="spacing" textLength="43" x="93" y="121.3779">ctime</text><text fill="#D9B8FF" font-family="sans-serif" font-size="14" lengthAdjust="spacing" textLength="70" x="136" y="121.3779">: datetime</text><text fill="#D9B8FF" font-family="sans-serif" font-size="14" font-weight="bold" lengthAdjust="spacing" textLength="14" x="93" y="147.6748">id</text><text fill="#D9B8FF" font-family="sans-serif" font-size="14" lengthAdjust="spacing" textLength="48" x="107" y="147.6748">: string</text><text fill="#D9B8FF" font-family="sans-serif" font-size="14" font-weight="bold" lengthAdjust="spacing" textLength="33" x="93" y="173.9717">kind</text><text fill="#D9B8FF" font-family="sans-serif" font-size="14" lengthAdjust="spacing" textLength="48" x="126" y="173.9717">: string</text><text fill="#D9B8FF" font-family="sans-serif" font-size="14" font-weight="bold" lengthAdjust="spacing" textLength="90" x="93" y="200.2686">last_access</text><text fill="#D9B8FF" font-family="sans-serif" font-size="14" lengthAdjust="spacing" textLength="66" x="183" y="200.2686">: duration</text><text fill="#D9B8FF" font-family="sans-serif" font-size="14" font-weight="bold" lengthAdjust="spacing" textLength="90" x="93" y="226.5654">last_update</text><text fill="#D9B8FF" font-family="sans-serif" font-size="14" lengthAdjust="spacing" textLength="66" x="183" y="226.5654">: duration</text><text fill="#D9B8FF" font-family="sans-serif" font-size="14" font-weight="bold" lengthAdjust="spacing" textLength="48" x="93" y="252.8623">mtime</text><text fill="#D9B8FF" font-family="sans-serif" font-size="14" lengthAdjust="spacing" textLength="70" x="141" y="252.8623">: datetime</text><text fill="#D9B8FF" font-family="sans-serif" font-size="14" font-weight="bold" lengthAdjust="spacing" textLength="43" x="93" y="279.1592">name</text><text fill="#D9B8FF" font-family="sans-serif" font-size="14" lengthAdjust="spacing" textLength="48" x="136" y="279.1592">: string</text><text fill="#D9B8FF" font-family="sans-serif" font-size="14" font-weight="bold" lengthAdjust="spacing" textLength="34" x="93" y="305.4561">tags</text><text fill="#D9B8FF" font-family="sans-serif" font-size="14" lengthAdjust="spacing" textLength="171" x="127" y="305.4561">: dictionary[string, string]</text></g><!--reverse link aws_resource to aws_efs_file_system--><g id="link_aws_resource_aws_efs_file_system"><path codeLine="54" d="M103.01,598.87 C117.86,644.04 139.19,708.94 157.62,765.02 " fill="none" id="aws_resource-backto-aws_efs_file_system" style="stroke:#FFAF37;stroke-width:2.0;"/><polygon fill="none" points="96.08,601.2,96.48,580.01,109.38,596.82,96.08,601.2" style="stroke:#FFAF37;stroke-width:2.0;"/></g><!--reverse link network_share to aws_efs_file_system--><g id="link_network_share_aws_efs_file_system"><path codeLine="55" d="M267.11,664.32 C256.22,697.17 244.47,732.6 233.7,765.08 " fill="none" id="network_share-backto-aws_efs_file_system" style="stroke:#FFAF37;stroke-width:2.0;"/><polygon fill="none" points="260.65,662.57,273.59,645.79,273.94,666.98,260.65,662.57" style="stroke:#FFAF37;stroke-width:2.0;"/></g><!--reverse link resource to aws_resource--><g id="link_resource_aws_resource"><path codeLine="56" d="M144.12,337.96 C125.67,400.67 106.6,465.46 95.15,504.38 " fill="none" id="resource-backto-aws_resource" style="stroke:#FFAF37;stroke-width:2.0;"/><polygon fill="none" points="137.59,336.36,149.95,319.15,151.02,340.31,137.59,336.36" style="stroke:#FFAF37;stroke-width:2.0;"/></g><!--reverse link resource to network_share--><g id="link_resource_network_share"><path codeLine="57" d="M247.43,338.25 C257.62,372.57 267.99,407.5 277.19,438.46 " fill="none" id="resource-backto-network_share" style="stroke:#FFAF37;stroke-width:2.0;"/><polygon fill="none" points="240.44,340.32,241.46,319.15,253.86,336.33,240.44,340.32" style="stroke:#FFAF37;stroke-width:2.0;"/></g><!--SRC=[XPJ1Rjim38RlUGe3lGKBaAnRqmoxT066xL8Cwsx38D0IPGkn9OEY4xZRtdsodNQMxRGtWVydahz8EpSA4omhRf8IonJ9B_p1s0e8okIEo9tshd2KN6aD-dex5Zyxowy2zr1YyWMB8xAHC2P-v4OUB7gVl1r8dq0UCdArLNrw9h0-I6XvGEqByFwEcKnQCmwQKRlqLkinEKvwTQqssnkSO8uKqXbPhzTginiZhvPwqVSpyM0UCTaC7-tUCKxQd9Jeg1UxR8b1anEZJ_h57h-1KiPcoVj1x7lV4rcaAFwGWtAdbjPG-64PpqZekAbmFt65krkbjxFmrqkmR5ykWPCNgBtGfa3Xct2lJ7ulbaiuWYaWDONXHZmwYy86UylbXv2QGdi1aOJ0nbd1xe0sacpTxhzmMfIXC0i6of1zonZBD-y2uax1kZ0gkbSXQKSbM8dXfehhLUIEneU2g0JdmL6MLpKBOqLfqgfBhboT5XZOWJxAytTWdD2xcYJsZidEO1RvvEWWV1u-c8xhJWAjfAPYxFfFdIiGxBDeN1LvxQC-REXCb85h7ndjXVyM8cTdCKnsfjlOKDOXggPkJ6s4JJz31OpjkPtYJ6mqbR1LSI3KOW5IXZ_Dg4Adr5MRQwIKCtKcAyMGzHcDRAy1DJzxxSsP-HMiHfFx-6UrMirjyIAUt6Lk9jLJQAn5AVy1]--></g></svg>

<svg xmlns="http://www.w3.org/2000/svg" width="424" height="1004" preserveAspectRatio="none" style="width:424px;height:1004px"><rect width="343" height="231.867" x="24" y="765.33" fill="#3D176E" rx="2.5" ry="2.5" style="stroke:#000d19;stroke-width:.5"/><circle cx="101.25" cy="785.225" r="11" fill="#ADD1B2" style="stroke:#181818;stroke-width:1"/><path d="M104.219 790.865q-.578.297-1.219.438-.64.156-1.344.156-2.5 0-3.828-1.64-1.312-1.657-1.312-4.782t1.312-4.781q1.328-1.656 3.828-1.656.703 0 1.344.156.656.156 1.219.453v2.719q-.625-.578-1.219-.844-.594-.281-1.219-.281-1.344 0-2.031 1.078-.688 1.062-.688 3.156 0 2.094.688 3.172.688 1.062 2.031 1.062.625 0 1.219-.265.594-.281 1.219-.86v2.72Z"/><text x="126.75" y="791.11" fill="#D9B8FF" font-family="Helvetica" font-size="17" textLength="170">aws_efs_file_system</text><path d="M25 805.119h341" style="stroke:#000d19;stroke-width:.5"/><text x="35" y="827.114" fill="#D9B8FF" font-family="sans-serif" font-size="14" font-weight="bold" textLength="177">availability_zone_name</text><text x="212" y="827.114" fill="#D9B8FF" font-family="sans-serif" font-size="14" textLength="48">: string</text><text x="35" y="853.411" fill="#D9B8FF" font-family="sans-serif" font-size="14" font-weight="bold" textLength="117">creation_token</text><text x="152" y="853.411" fill="#D9B8FF" font-family="sans-serif" font-size="14" textLength="48">: string</text><text x="35" y="879.708" fill="#D9B8FF" font-family="sans-serif" font-size="14" font-weight="bold" textLength="205">number_of_mount_targets</text><text x="240" y="879.708" fill="#D9B8FF" font-family="sans-serif" font-size="14" textLength="44">: int64</text><text x="35" y="906.005" fill="#D9B8FF" font-family="sans-serif" font-size="14" font-weight="bold" textLength="72">owner_id</text><text x="107" y="906.005" fill="#D9B8FF" font-family="sans-serif" font-size="14" textLength="48">: string</text><text x="35" y="932.302" fill="#D9B8FF" font-family="sans-serif" font-size="14" font-weight="bold" textLength="153">performance_mode</text><text x="188" y="932.302" fill="#D9B8FF" font-family="sans-serif" font-size="14" textLength="48">: string</text><text x="35" y="958.599" fill="#D9B8FF" font-family="sans-serif" font-size="14" font-weight="bold" textLength="264">provisioned_throughput_in_mibps</text><text x="299" y="958.599" fill="#D9B8FF" font-family="sans-serif" font-size="14" textLength="57">: double</text><text x="35" y="984.895" fill="#D9B8FF" font-family="sans-serif" font-size="14" font-weight="bold" textLength="140">throughput_mode</text><text x="175" y="984.895" fill="#D9B8FF" font-family="sans-serif" font-size="14" textLength="48">: string</text><rect width="155" height="74.086" x="7" y="504.5" fill="#3D176E" rx="2.5" ry="2.5" style="stroke:#000d19;stroke-width:.5"/><circle cx="22" cy="524.394" r="11" fill="#ADD1B2" style="stroke:#181818;stroke-width:1"/><path d="M24.969 530.035q-.578.297-1.219.438-.64.156-1.344.156-2.5 0-3.828-1.64-1.312-1.657-1.312-4.782t1.312-4.781q1.328-1.657 3.828-1.657.703 0 1.344.157.656.156 1.219.453v2.719q-.625-.578-1.219-.844-.594-.281-1.219-.281-1.343 0-2.031 1.078-.688 1.062-.688 3.156 0 2.094.688 3.172.688 1.062 2.031 1.062.625 0 1.219-.265.594-.282 1.219-.86v2.72Z"/><text x="41" y="530.28" fill="#D9B8FF" font-family="Helvetica" font-size="17" textLength="113">aws_resource</text><path d="M8 544.289h153" style="stroke:#000d19;stroke-width:.5"/><text x="18" y="566.284" fill="#D9B8FF" font-family="sans-serif" font-size="14" font-weight="bold" textLength="26">arn</text><text x="44" y="566.284" fill="#D9B8FF" font-family="sans-serif" font-size="14" textLength="48">: string</text><rect width="220" height="205.57" x="197.5" y="438.76" fill="#3D176E" rx="2.5" ry="2.5" style="stroke:#000d19;stroke-width:.5"/><circle cx="236.35" cy="458.654" r="11" fill="#ADD1B2" style="stroke:#181818;stroke-width:1"/><path d="M239.319 464.295q-.578.297-1.219.438-.64.156-1.344.156-2.5 0-3.828-1.64-1.312-1.657-1.312-4.782t1.312-4.781q1.328-1.656 3.828-1.656.703 0 1.344.156.656.156 1.219.453v2.719q-.625-.579-1.219-.844-.594-.281-1.219-.281-1.344 0-2.031 1.078-.688 1.062-.688 3.156 0 2.094.688 3.172.688 1.062 2.031 1.062.625 0 1.219-.265.594-.281 1.219-.86v2.72Z"/><text x="260.65" y="464.54" fill="#D9B8FF" font-family="Helvetica" font-size="17" textLength="125">network_share</text><path d="M198.5 478.549h218" style="stroke:#000d19;stroke-width:.5"/><text x="208.5" y="500.544" fill="#D9B8FF" font-family="sans-serif" font-size="14" font-weight="bold" textLength="133">share_encrypted</text><text x="341.5" y="500.544" fill="#D9B8FF" font-family="sans-serif" font-size="14" textLength="65">: boolean</text><text x="208.5" y="526.841" fill="#D9B8FF" font-family="sans-serif" font-size="14" font-weight="bold" textLength="85">share_iops</text><text x="293.5" y="526.841" fill="#D9B8FF" font-family="sans-serif" font-size="14" textLength="44">: int64</text><text x="208.5" y="553.138" fill="#D9B8FF" font-family="sans-serif" font-size="14" font-weight="bold" textLength="84">share_size</text><text x="292.5" y="553.138" fill="#D9B8FF" font-family="sans-serif" font-size="14" textLength="44">: int64</text><text x="208.5" y="579.435" fill="#D9B8FF" font-family="sans-serif" font-size="14" font-weight="bold" textLength="101">share_status</text><text x="309.5" y="579.435" fill="#D9B8FF" font-family="sans-serif" font-size="14" textLength="48">: string</text><text x="208.5" y="605.732" fill="#D9B8FF" font-family="sans-serif" font-size="14" font-weight="bold" textLength="141">share_throughput</text><text x="349.5" y="605.732" fill="#D9B8FF" font-family="sans-serif" font-size="14" textLength="57">: double</text><text x="208.5" y="632.029" fill="#D9B8FF" font-family="sans-serif" font-size="14" font-weight="bold" textLength="87">share_type</text><text x="295.5" y="632.029" fill="#D9B8FF" font-family="sans-serif" font-size="14" textLength="48">: string</text><rect width="227" height="310.758" x="82" y="7" fill="#3D176E" rx="2.5" ry="2.5" style="stroke:#000d19;stroke-width:.5"/><circle cx="150.75" cy="26.895" r="11" fill="#ADD1B2" style="stroke:#181818;stroke-width:1"/><path d="M153.719 32.535q-.578.297-1.219.438-.64.156-1.344.156-2.5 0-3.828-1.64-1.312-1.657-1.312-4.782t1.312-4.781q1.328-1.656 3.828-1.656.703 0 1.344.156.656.156 1.219.453v2.719q-.625-.578-1.219-.844-.594-.281-1.219-.281-1.344 0-2.031 1.078-.688 1.062-.688 3.156 0 2.094.688 3.172.688 1.062 2.031 1.062.625 0 1.219-.265.594-.281 1.219-.86v2.72Z"/><text x="176.25" y="32.78" fill="#D9B8FF" font-family="Helvetica" font-size="17" textLength="71">resource</text><path d="M83 46.789h225" style="stroke:#000d19;stroke-width:.5"/><text x="93" y="68.784" fill="#D9B8FF" font-family="sans-serif" font-size="14" font-weight="bold" textLength="29">age</text><text x="122" y="68.784" fill="#D9B8FF" font-family="sans-serif" font-size="14" textLength="66">: duration</text><text x="93" y="95.081" fill="#D9B8FF" font-family="sans-serif" font-size="14" font-weight="bold" textLength="43">atime</text><text x="136" y="95.081" fill="#D9B8FF" font-family="sans-serif" font-size="14" textLength="70">: datetime</text><text x="93" y="121.378" fill="#D9B8FF" font-family="sans-serif" font-size="14" font-weight="bold" textLength="43">ctime</text><text x="136" y="121.378" fill="#D9B8FF" font-family="sans-serif" font-size="14" textLength="70">: datetime</text><text x="93" y="147.675" fill="#D9B8FF" font-family="sans-serif" font-size="14" font-weight="bold" textLength="14">id</text><text x="107" y="147.675" fill="#D9B8FF" font-family="sans-serif" font-size="14" textLength="48">: string</text><text x="93" y="173.972" fill="#D9B8FF" font-family="sans-serif" font-size="14" font-weight="bold" textLength="33">kind</text><text x="126" y="173.972" fill="#D9B8FF" font-family="sans-serif" font-size="14" textLength="48">: string</text><text x="93" y="200.269" fill="#D9B8FF" font-family="sans-serif" font-size="14" font-weight="bold" textLength="90">last_access</text><text x="183" y="200.269" fill="#D9B8FF" font-family="sans-serif" font-size="14" textLength="66">: duration</text><text x="93" y="226.565" fill="#D9B8FF" font-family="sans-serif" font-size="14" font-weight="bold" textLength="90">last_update</text><text x="183" y="226.565" fill="#D9B8FF" font-family="sans-serif" font-size="14" textLength="66">: duration</text><text x="93" y="252.862" fill="#D9B8FF" font-family="sans-serif" font-size="14" font-weight="bold" textLength="48">mtime</text><text x="141" y="252.862" fill="#D9B8FF" font-family="sans-serif" font-size="14" textLength="70">: datetime</text><text x="93" y="279.159" fill="#D9B8FF" font-family="sans-serif" font-size="14" font-weight="bold" textLength="43">name</text><text x="136" y="279.159" fill="#D9B8FF" font-family="sans-serif" font-size="14" textLength="48">: string</text><text x="93" y="305.456" fill="#D9B8FF" font-family="sans-serif" font-size="14" font-weight="bold" textLength="34">tags</text><text x="127" y="305.456" fill="#D9B8FF" font-family="sans-serif" font-size="14" textLength="171">: dictionary[string, string]</text><g fill="none"><path d="M103.01 598.87c14.85 45.17 36.18 110.07 54.61 166.15" style="stroke:#ffaf37;stroke-width:2"/><path d="m96.08 601.2.4-21.19 12.9 16.81-13.3 4.38z" style="stroke:#ffaf37;stroke-width:2"/></g><g fill="none"><path d="M267.11 664.32c-10.89 32.85-22.64 68.28-33.41 100.76" style="stroke:#ffaf37;stroke-width:2"/><path d="m260.65 662.57 12.94-16.78.35 21.19-13.29-4.41z" style="stroke:#ffaf37;stroke-width:2"/></g><g fill="none"><path d="M144.12 337.96c-18.45 62.71-37.52 127.5-48.97 166.42" style="stroke:#ffaf37;stroke-width:2"/><path d="m137.59 336.36 12.36-17.21 1.07 21.16-13.43-3.95z" style="stroke:#ffaf37;stroke-width:2"/></g><path fill="none" d="M247.43 338.25c10.19 34.32 20.56 69.25 29.76 100.21m-36.75-98.14 1.02-21.17 12.4 17.18-13.42 3.99z" style="stroke:#ffaf37;stroke-width:2"/></svg>
